X:5280
T:Sally in the Garden
M:4/4
O:USA
R:Reel
Z:Richard Robinson 
%%TUNEURL: http://www.leeds.ac.uk/music/Info/RRTuneBk/gettune/0000081d.html
%%ID:0000081d
K:A min
A2A>G E>G A>B|c4 B4|\
A>B A>G E>D E>^F|G2G>A G>F E2|
A2A>G E>G A>B|\
M:2/4
c4 d4|\
M:4/4
(e2 e)>f e>d B>c|d2 d>e d>c B2| A4 A2 ::\
A>B|\
c>B A>B c>B A>B|c2 d2 e2 A>B|\
c>B A>B c2 d2 |e6 A>B|   c>B A>B c>B A>B|\
M:2/4
c4 d4|\
M:4/4
(e2 e)>f e>d B>c|d2 d>e d>c B2 |A4 A2 :|
